dist/svgs/crypto-icons/icons/dgd.svg

<?xml version="1.0" encoding="UTF-8" standalone="yes"?>
<svg xmlns="http://www.w3.org/2000/svg" xmlns:xlink="http://www.w3.org/1999/xlink" width="510.66666666666663px" height="236px" viewBox="0 0 383 177" version="1.1">
  <g id="surface1">
    <path style=" stroke:none;fill-rule:evenodd;fill:rgb(0%,0%,0%);fill-opacity:1;" d="M 0.0976562 0 L 0.0976562 27.222656 L 127.601562 27.222656 L 127.601562 0 Z M 0.0976562 27.222656 L 0.0976562 54.445312 L 127.601562 54.445312 L 127.601562 27.222656 Z M 143.503906 0 L 183.988281 0 L 183.988281 176.902344 L 143.503906 176.902344 Z M 143.503906 0 "/>
    <path style=" stroke:none;fill-rule:evenodd;fill:rgb(0%,0%,0%);fill-opacity:1;" d="M 0.078125 108.324219 L 0.078125 71.226562 L 176.992188 71.226562 L 176.992188 108.324219 Z M 1 176.972656 L 1 139.875 L 177.914062 139.875 L 177.914062 176.96875 Z M 1 176.972656 "/>
    <path style=" stroke:none;fill-rule:evenodd;fill:rgb(0%,0%,0%);fill-opacity:1;" d="M 0.0976562 71.230469 L 40.582031 71.230469 L 40.582031 177 L 0.0976562 177 Z M 199.011719 0 L 239.496094 0 L 239.496094 176.902344 L 199.011719 176.902344 Z M 382.921875 108.324219 L 382.921875 71.226562 L 271.9375 71.226562 L 271.9375 108.324219 Z M 382.921875 108.324219 "/>
    <path style=" stroke:none;fill-rule:evenodd;fill:rgb(0%,0%,0%);fill-opacity:1;" d="M 382 176.972656 L 382 139.875 L 205.085938 139.875 L 205.085938 176.96875 Z M 382 37.117188 L 382 0.0195312 L 205.085938 0.0195312 L 205.085938 37.117188 Z M 382 37.117188 "/>
    <path style=" stroke:none;fill-rule:evenodd;fill:rgb(0%,0%,0%);fill-opacity:1;" d="M 342.417969 71.230469 L 382.902344 71.230469 L 382.902344 177 L 342.417969 177 Z M 342.417969 71.230469 "/>
  </g>
</svg>

<svg xmlns="http://www.w3.org/2000/svg" viewBox="0 0 383 177"><g fill-rule="evenodd"><path d="M.098 0v27.223h127.504V0zm0 27.223v27.222h127.504V27.223zM143.504 0h40.484v176.902h-40.484zm0 0"/><path d="M.078 108.324V71.227h176.914v37.097zM1 176.973v-37.098h176.914v37.094zm0 0"/><path d="M.098 71.23h40.484V177H.098zM199.012 0h40.484v176.902h-40.484zm183.91 108.324V71.227H271.937v37.097zm0 0"/><path d="M382 176.973v-37.098H205.086v37.094zm0-139.856V.02H205.086v37.097zm0 0"/><path d="M342.418 71.23h40.484V177h-40.484zm0 0"/></g></svg>
